src/svgs/atm.svg

<svg xmlns="http://www.w3.org/2000/svg" viewBox="0 0 24 24" width="512" height="512" aria-labelledby="aqatm-desc aqatm-title"><title id="aqatm-title">ATM Icon</title><desc id="aqatm-desc">A picture showing an empty screen and a keypad.</desc><path d="M19.778 2H4.222A2.222 2.222 0 002 4.222v15.556A2.222 2.222 0 004.222 22h15.556A2.222 2.222 0 0022 19.778V4.222A2.222 2.222 0 0019.778 2zM8 5h8v10H8zM4 5h2v2H4zm0 4h2v2H4zm0 6v-2h2v2zm13 4H7v-2h10zm3-4h-2v-2h2zm0-4h-2V9h2zm0-4h-2V5h2z"/></svg>

<svg xmlns="http://www.w3.org/2000/svg" viewBox="0 0 24 24"><path d="M19.778,2H4.222A2.222,2.222,0,0,0,2,4.222V19.778A2.222,2.222,0,0,0,4.222,22H19.778A2.222,2.222,0,0,0,22,19.778V4.222A2.222,2.222,0,0,0,19.778,2ZM8,5h8V15H8ZM4,5H6V7H4ZM4,9H6v2H4Zm0,6V13H6v2Zm13,4H7V17H17Zm3-4H18V13h2Zm0-4H18V9h2Zm0-4H18V5h2Z"/></svg>
